X:1
T: The Countess of Seafield
C:Alexander Walker
R:Strathspey
Q: 128
K:A
M:4/4
L:1/16
|:C2|A,3C E3C EEE2 E3c|d3B c3A BB,3 B,3C|A,3C E3C EEE2 E2cd|c3A B3G A4-A2C2|
A,3C E3C EEE2 E3c|d3B c3A BB,3 B,3C|A,3C E3C EEE2 E2cd|c3A B3G A4-A2f2|
e3A c3A eA3 A3c|d3B c3A BF3 F2cd|e3A c3A c3d ea3|gb3 e3g a4 A3g|
a3A g3A f3A e3A|d3B c3A BB,3 B,3C|A,3C E3C EEE2 E2cd|cA3 B3G A4A2:|
